;START_OF_HEADER
;HEADER_VERSION:0.1
;FLAVOR:Griffin
;GENERATOR.NAME:Cura_SteamEngine
;GENERATOR.VERSION:4.12.1
;GENERATOR.BUILD_DATE:2021-11-18
;TARGET_MACHINE.NAME:Ultimaker 3
;EXTRUDER_TRAIN.1.INITIAL_TEMPERATURE:245
;EXTRUDER_TRAIN.1.MATERIAL.VOLUME_USED:38312
;EXTRUDER_TRAIN.1.MATERIAL.GUID:60636bb4-518f-42e7-8237-fe77b194ebe0
;EXTRUDER_TRAIN.1.NOZZLE.DIAMETER:0.4
;EXTRUDER_TRAIN.1.NOZZLE.NAME:AA 0.4
;BUILD_PLATE.TYPE:glass
;BUILD_PLATE.INITIAL_TEMPERATURE:80
;PRINT.TIME:10736
;PRINT.GROUPS:1
;PRINT.SIZE.MIN.X:9
;PRINT.SIZE.MIN.Y:6
;PRINT.SIZE.MIN.Z:0.27
;PRINT.SIZE.MAX.X:204
;PRINT.SIZE.MAX.Y:206.8
;PRINT.SIZE.MAX.Z:11.07
;END_OF_HEADER
;Generated with Cura_SteamEngine 4.12.1
T1
M82 ;absolute extrusion mode

G92 E0
M109 S245
G0 F9000 X204 Y6 Z2
G280
G1 F1500 E-5
;LAYER_COUNT:55
;LAYER:0
M107
M204 S625
M205 X30 Y30
;MESH:sticky_pi_v2 - card_drawer.stl
G0 F7714.3 X175.184 Y18.214 Z0.27
M204 S500
M205 X20 Y20
;TYPE:WALL-INNER
G1 F1500 E0
G1 X175.184 Y204.23 E3.21214
G1 X174.93 Y204.484 E3.21834
G1 X22.07 Y204.484 E5.85794
G1 X21.816 Y204.23 E5.86415
G1 X21.816 Y18.163 E9.07717
G1 X21.442 Y17.023 E9.09789
G1 X20.557 Y16.328 E9.11732
G1 X16.96 Y14.839 E9.18454
G1 X16.392 Y14.797 E9.19438
G1 X16.681 Y14.488 E9.19781
G1 X20.391 Y10.516 E9.29167
G1 X176.609 Y10.516 E11.98925
G1 X180.6 Y14.788 E12.09021
G1 X179.984 Y14.863 E12.10092
G1 X176.39 Y16.35 E12.16808
G1 X175.485 Y17.135 E12.18877
G1 X175.184 Y18.214 E12.20812
M204 S625
M205 X30 Y30
G0 F7714.3 X175.592 Y18.27
M204 S500
M205 X20 Y20
G1 F1500 X175.592 Y204.398 E15.42219
G1 X175.098 Y204.892 E15.43425
G1 X21.902 Y204.892 E18.07966
G1 X21.408 Y204.398 E18.09172
G1 X21.408 Y18.228 E21.30652
G1 X21.093 Y17.268 E21.32397
G1 X20.349 Y16.684 E21.3403
G1 X16.865 Y15.241 E21.40542
G1 X15.856 Y15.167 E21.42289
G1 X15.067 Y15.617 E21.43857
G1 X15.659 Y14.984 E21.44337
G1 X20.214 Y10.108 E21.55859
G1 X176.786 Y10.108 E24.26229
G1 X181.28 Y14.918 E24.37596
G1 X181.91 Y15.592 E24.39189
G1 X181.038 Y15.145 E24.3992
G1 X180.089 Y15.261 E24.41571
G1 X176.607 Y16.702 E24.48079
G1 X175.845 Y17.363 E24.49821
G1 X175.592 Y18.27 E24.51447
M204 S625
M205 X30 Y30
G1 F1500 E19.51447
G0 F7714.3 X176.205 Y17.591
M204 S500
M205 X20 Y20
G1 F1500 E24.51447
G1 X176 Y18.326 E24.52764
G1 X176 Y204.566 E27.74365
G1 X175.266 Y205.3 E27.76158
G1 X21.734 Y205.3 E30.41278
G1 X21 Y204.566 E30.43071
G1 X21 Y18.293 E33.64729
G1 X20.744 Y17.513 E33.66146
G1 X20.141 Y17.04 E33.6747
G1 X16.77 Y15.643 E33.73771
G1 X15.95 Y15.583 E33.7519
G1 X15.284 Y15.963 E33.76515
G1 X11.042 Y20.202 E33.8687
G1 X10.957 Y20.262 E33.8705
G1 X10.703 Y20.289 E33.87491
G1 X10.556 Y20.174 E33.87813
G1 X10.516 Y20.04 E33.88055
G1 X10.565 Y19.852 E33.8839
G1 X10.656 Y19.74 E33.88639
G1 X20.037 Y9.7 E34.12367
G1 X176.963 Y9.7 E36.83348
G1 X186.333 Y19.728 E37.07047
G1 X186.481 Y19.971 E37.07539
G1 X186.435 Y20.183 E37.07913
G1 X186.296 Y20.289 E37.08215
G1 X186.133 Y20.299 E37.08497
G1 X185.922 Y20.168 E37.08926
G1 X181.692 Y15.939 E37.19255
G1 X180.963 Y15.565 E37.2067
G1 X180.194 Y15.659 E37.22007
G1 X176.824 Y17.054 E37.28306
G1 X176.205 Y17.591 E37.29721
M204 S625
M205 X30 Y30
G0 F7714.3 X176.565 Y17.819
M204 S500
M205 X20 Y20
G1 F1500 X176.408 Y18.382 E37.3073
G1 X176.408 Y204.734 E40.52524
G1 X175.434 Y205.708 E40.54903
G1 X21.566 Y205.708 E43.20604
G1 X20.592 Y204.734 E43.22982
G1 X20.592 Y18.358 E46.44818
G1 X20.395 Y17.758 E46.45908
G1 X19.933 Y17.396 E46.46922
G1 X16.675 Y16.045 E46.53012
G1 X16.044 Y15.999 E46.54105
G1 X15.534 Y16.29 E46.55119
G1 X11.306 Y20.515 E46.6544
G1 X11.125 Y20.642 E46.65822
G1 X10.781 Y20.721 E46.66432
G1 X10.562 Y20.677 E46.66817
G1 X10.375 Y20.576 E46.67184
G1 X10.222 Y20.415 E46.67568
G1 X10.145 Y20.269 E46.67853
G1 X10.103 Y20.055 E46.68229
G1 X10.127 Y19.838 E46.68606
G1 X10.214 Y19.637 E46.68985
G1 X10.348 Y19.472 E46.69352
G1 X19.86 Y9.292 E46.9341
G1 X177.14 Y9.292 E49.65003
G1 X186.642 Y19.461 E49.89036
G1 X186.819 Y19.699 E49.89548
G1 X186.887 Y19.9 E49.89914
G1 X186.893 Y20.116 E49.90287
G1 X186.79 Y20.402 E49.90812
G1 X186.624 Y20.576 E49.91228
G1 X186.438 Y20.677 E49.91593
G1 X186.23 Y20.719 E49.91959
G1 X186.028 Y20.699 E49.9231
G1 X185.815 Y20.607 E49.92711
G1 X185.649 Y20.472 E49.9308
G1 X181.449 Y16.273 E50.03336
G1 X180.888 Y15.985 E50.04425
G1 X180.299 Y16.057 E50.05449
G1 X177.041 Y17.406 E50.11538
G1 X176.565 Y17.819 E50.12627
M204 S625
M205 X30 Y30
G0 F7714.3 X176.925 Y18.047
M204 S500
M205 X20 Y20
G1 F1500 X176.816 Y18.438 E50.13327
G1 X176.816 Y204.902 E53.35315
G1 X175.602 Y206.116 E53.3828
G1 X21.398 Y206.116 E56.04561
G1 X20.184 Y204.902 E56.07525
G1 X20.184 Y18.423 E59.29539
G1 X20.046 Y18.003 E59.30302
G1 X19.725 Y17.751 E59.31007
G1 X16.58 Y16.447 E59.36886
G1 X16.138 Y16.415 E59.37652
G1 X15.784 Y16.617 E59.38355
G1 X11.57 Y20.828 E59.48643
G1 X11.313 Y21.008 E59.49184
G1 X11.034 Y21.108 E59.49696
G1 X10.757 Y21.133 E59.50176
G1 X10.421 Y21.065 E59.50768
G1 X10.124 Y20.904 E59.51352
G1 X9.888 Y20.656 E59.51943
G1 X9.757 Y20.407 E59.52429
G1 X9.69 Y20.072 E59.53019
G1 X9.727 Y19.735 E59.53604
G1 X9.861 Y19.424 E59.54189
G1 X10.041 Y19.202 E59.54683
G1 X19.683 Y8.884 E59.79068
G1 X177.317 Y8.884 E62.51272
G1 X186.956 Y19.199 E62.75651
G1 X187.184 Y19.506 E62.76311
G1 X187.294 Y19.828 E62.76899
G1 X187.302 Y20.168 E62.77486
G1 X187.207 Y20.497 E62.78077
G1 X187.119 Y20.648 E62.78379
G1 X186.876 Y20.904 E62.78989
G1 X186.579 Y21.065 E62.79572
G1 X186.25 Y21.131 E62.80151
G1 X185.926 Y21.099 E62.80714
G1 X185.6 Y20.958 E62.81327
G1 X185.376 Y20.776 E62.81825
G1 X181.206 Y16.607 E62.92008
G1 X180.813 Y16.405 E62.92771
G1 X180.404 Y16.455 E62.93482
G1 X177.258 Y17.758 E62.99362
G1 X176.925 Y18.047 E63.00124
M204 S625
M205 X30 Y30
G0 F7714.3 X177.317 Y18.295
M204 S500
M205 X20 Y20
;TYPE:WALL-OUTER
G1 F1500 X177.26 Y18.499 E63.00554
G1 X177.26 Y205.086 E66.79613
G1 X175.786 Y206.56 E66.83848
G1 X21.214 Y206.56 E69.97867
G1 X19.74 Y205.086 E70.02102
G1 X19.74 Y18.494 E73.81171
G1 X19.666 Y18.269 E73.81652
G1 X19.499 Y18.138 E73.82083
G1 X16.476 Y16.885 E73.88731
G1 X16.24 Y16.868 E73.89212
G1 X16.055 Y16.973 E73.89644
G1 X11.857 Y21.169 E74.01702
G1 X11.518 Y21.406 E74.02543
G1 X11.132 Y21.545 E74.03376
G1 X10.732 Y21.581 E74.04192
G1 X10.267 Y21.487 E74.05156
G1 X9.852 Y21.261 E74.06116
G1 X9.523 Y20.916 E74.07084
G1 X9.335 Y20.557 E74.07907
G1 X9.242 Y20.092 E74.08871
G1 X9.293 Y19.62 E74.09835
G1 X9.478 Y19.193 E74.10781
G1 X9.705 Y18.912 E74.11515
G1 X19.491 Y8.44 E74.40632
G1 X177.509 Y8.44 E77.61652
G1 X187.3 Y18.917 E77.90784
G1 X187.581 Y19.296 E77.91743
G1 X187.736 Y19.751 E77.92719
G1 X187.748 Y20.226 E77.93684
G1 X187.62 Y20.669 E77.94621
G1 X187.477 Y20.916 E77.95201
G1 X187.148 Y21.261 E77.96169
G1 X186.733 Y21.487 E77.97129
G1 X186.271 Y21.58 E77.98087
G1 X185.813 Y21.534 E77.99022
G1 X185.37 Y21.343 E78.00002
G1 X185.074 Y21.102 E78.00777
G1 X180.941 Y16.97 E78.1265
G1 X180.731 Y16.862 E78.1313
G1 X180.518 Y16.888 E78.13566
G1 X177.495 Y18.14 E78.20213
G1 X177.317 Y18.295 E78.20693
M204 S625
M205 X30 Y30
G0 F7714.3 X177.263 Y18.488
G0 X176.754 Y18.346
G1 F1500 E73.20693
G0 F7714.3 X174.75 Y18.155
M204 S500
M205 X20 Y20
;TYPE:SKIN
G1 F1500 E78.20693
G1 X174.75 Y204.05 E81.98346
G1 X22.25 Y204.05 E85.08156
G1 X22.25 Y18.093 E88.85935
G1 X21.814 Y16.763 E88.88778
G1 X20.778 Y15.95 E88.91454
G1 X17.266 Y14.496 E88.99176
G1 X20.579 Y10.95 E89.09034
G1 X176.421 Y10.95 E92.25634
G1 X179.735 Y14.497 E92.35495
G1 X176.159 Y15.976 E92.43357
G1 X175.102 Y16.893 E92.462
G1 X174.75 Y18.155 E92.48861
M204 S625
M205 X30 Y30
G1 F1500 E87.48861
G0 F7714.3 X179.144 Y14.54
M204 S500
M205 X20 Y20
G1 F1500 E92.48861
G1 X175.737 Y11.134 E92.58648
M204 S625
M205 X30 Y30
G0 F7714.3 X175.058 Y11.134
M204 S500
M205 X20 Y20
G1 F1500 X178.664 Y14.739 E92.69007
M204 S625
M205 X30 Y30
G0 F7714.3 X178.183 Y14.938
M204 S500
M205 X20 Y20
G1 F1500 X174.379 Y11.134 E92.79936
M204 S625
M205 X30 Y30
G0 F7714.3 X173.7 Y11.134
M204 S500
M205 X20 Y20
G1 F1500 X177.703 Y15.137 E92.91437
M204 S625
M205 X30 Y30
G0 F7714.3 X177.223 Y15.335
M204 S500
M205 X20 Y20
G1 F1500 X173.022 Y11.134 E93.03506
M204 S625
M205 X30 Y30
G0 F7714.3 X172.343 Y11.134
M204 S500
M205 X20 Y20
G1 F1500 X176.743 Y15.534 E93.16148
M204 S625
M205 X30 Y30
G0 F7714.3 X176.263 Y15.733
M204 S500
M205 X20 Y20
G1 F1500 X171.664 Y11.134 E93.29361
M204 S625
M205 X30 Y30
G0 F7714.3 X170.985 Y11.134
M204 S500
M205 X20 Y20
G1 F1500 X175.85 Y15.998 E93.43337
M204 S625
M205 X30 Y30
G0 F7714.3 X175.486 Y16.313
M204 S500
M205 X20 Y20
G1 F1500 X170.306 Y11.134 E93.58218
M204 S625
M205 X30 Y30
G0 F7714.3 X169.627 Y11.134
M204 S500
M205 X20 Y20
G1 F1500 X175.122 Y16.629 E93.74005
M204 S625
M205 X30 Y30
G0 F7714.3 X174.866 Y17.051
M204 S500
M205 X20 Y20
G1 F1500 X168.949 Y11.134 E93.91005
M204 S625
M205 X30 Y30
G0 F7714.3 X168.27 Y11.134
M204 S500
M205 X20 Y20
G1 F1500 X174.718 Y17.582 E94.0953
M204 S625
M205 X30 Y30
G0 F7714.3 X174.569 Y18.112
M204 S500
M205 X20 Y20
G1 F1500 X167.591 Y11.134 E94.29578
M204 S625
M205 X30 Y30
G0 F7714.3 X166.912 Y11.134
M204 S500
M205 X20 Y20
G1 F1500 X174.565 Y18.787 E94.51565
M204 S625
M205 X30 Y30
G0 F7714.3 X174.565 Y19.465
M204 S500
M205 X20 Y20
G1 F1500 X166.233 Y11.134 E94.75502
M204 S625
M205 X30 Y30
G0 F7714.3 X165.555 Y11.134
M204 S500
M205 X20 Y20
G1 F1500 X174.565 Y20.144 E95.01388
M204 S625
M205 X30 Y30
G0 F7714.3 X174.565 Y20.823
M204 S500
M205 X20 Y20
G1 F1500 X164.876 Y11.134 E95.29225
M204 S625
M205 X30 Y30
G0 F7714.3 X164.197 Y11.134
M204 S500
M205 X20 Y20
G1 F1500 X174.565 Y21.502 E95.59012
M204 S625
M205 X30 Y30
G0 F7714.3 X174.565 Y22.181
M204 S500
M205 X20 Y20
G1 F1500 X163.518 Y11.134 E95.90751
M204 S625
M205 X30 Y30
G0 F7714.3 X162.839 Y11.134
M204 S500
M205 X20 Y20
G1 F1500 X174.565 Y22.86 E96.2444
M204 S625
M205 X30 Y30
G0 F7714.3 X174.565 Y23.538
M204 S500
M205 X20 Y20
G1 F1500 X162.16 Y11.134 E96.60078
M204 S625
M205 X30 Y30
G0 F7714.3 X161.482 Y11.134
M204 S500
M205 X20 Y20
G1 F1500 X174.565 Y24.217 E96.97666
M204 S625
M205 X30 Y30
G0 F7714.3 X174.565 Y24.896
M204 S500
M205 X20 Y20
G1 F1500 X160.803 Y11.134 E97.37205
M204 S625
M205 X30 Y30
G0 F7714.3 X160.124 Y11.134
M204 S500
M205 X20 Y20
G1 F1500 X174.565 Y25.575 E97.78694
M204 S625
M205 X30 Y30
G0 F7714.3 X174.565 Y26.254
M204 S500
M205 X20 Y20
G1 F1500 X159.445 Y11.134 E98.22135
M204 S625
M205 X30 Y30
G0 F7714.3 X158.766 Y11.134
M204 S500
M205 X20 Y20
G1 F1500 X174.565 Y26.932 E98.67524
M204 S625
M205 X30 Y30
G0 F7714.3 X174.565 Y27.611
M204 S500
M205 X20 Y20
G1 F1500 X158.087 Y11.134 E99.14865
M204 S625
M205 X30 Y30
G0 F7714.3 X157.409 Y11.134
M204 S500
M205 X20 Y20
G1 F1500 X174.565 Y28.29 E99.64154
M204 S625
M205 X30 Y30
G0 F7714.3 X174.565 Y28.969
M204 S500
M205 X20 Y20
G1 F1500 X156.73 Y11.134 E100.15395
M204 S625
M205 X30 Y30
G0 F7714.3 X156.051 Y11.134
M204 S500
M205 X20 Y20
G1 F1500 X174.565 Y29.648 E100.68586
M204 S625
M205 X30 Y30
G0 F7714.3 X174.565 Y30.327
M204 S500
M205 X20 Y20
G1 F1500 X155.372 Y11.134 E101.23728
M204 S625
M205 X30 Y30
G0 F7714.3 X154.693 Y11.134
M204 S500
M205 X20 Y20
G1 F1500 X174.565 Y31.005 E101.8082
M204 S625
M205 X30 Y30
G0 F7714.3 X174.565 Y31.684
M204 S500
M205 X20 Y20
G1 F1500 X154.015 Y11.134 E102.3986
M204 S625
M205 X30 Y30
G0 F7714.3 X153.336 Y11.134
M204 S500
M205 X20 Y20
G1 F1500 X174.565 Y32.363 E103.00852
M204 S625
M205 X30 Y30
G0 F7714.3 X174.565 Y33.042
M204 S500
M205 X20 Y20
G1 F1500 X152.657 Y11.134 E103.63794
M204 S625
M205 X30 Y30
G0 F7714.3 X151.978 Y11.134
M204 S500
M205 X20 Y20
G1 F1500 X174.565 Y33.721 E104.28688
M204 S625
M205 X30 Y30
G0 F7714.3 X174.565 Y34.4
M204 S500
M205 X20 Y20
G1 F1500 X151.299 Y11.134 E104.95532
M204 S625
M205 X30 Y30
G0 F7714.3 X150.62 Y11.134
M204 S500
M205 X20 Y20
G1 F1500 X174.565 Y35.078 E105.64325
M204 S625
M205 X30 Y30
G0 F7714.3 X174.565 Y35.757
M204 S500
M205 X20 Y20
G1 F1500 X149.942 Y11.134 E106.35067
M204 S625
M205 X30 Y30
G0 F7714.3 X149.263 Y11.134
M204 S500
M205 X20 Y20
G1 F1500 X174.565 Y36.436 E107.07761
M204 S625
M205 X30 Y30
G0 F7714.3 X174.565 Y37.115
M204 S500
M205 X20 Y20
G1 F1500 X148.584 Y11.134 E107.82405
M204 S625
M205 X30 Y30
G0 F7714.3 X147.905 Y11.134
M204 S500
M205 X20 Y20
G1 F1500 X174.565 Y37.794 E108.59
M204 S625
M205 X30 Y30
G0 F7714.3 X174.565 Y38.472
M204 S500
M205 X20 Y20
G1 F1500 X147.226 Y11.134 E109.37545
M204 S625
M205 X30 Y30
G0 F7714.3 X146.547 Y11.134
M204 S500
M205 X20 Y20
G1 F1500 X174.565 Y39.151 E110.1804
M204 S625
M205 X30 Y30
G0 F7714.3 X174.565 Y39.83
M204 S500
M205 X20 Y20
G1 F1500 X145.869 Y11.134 E111.00484
M204 S625
M205 X30 Y30
G0 F7714.3 X145.19 Y11.134
M204 S500
M205 X20 Y20
G1 F1500 X174.565 Y40.509 E111.8488
M204 S625
M205 X30 Y30
G0 F7714.3 X174.565 Y41.188
M204 S500
M205 X20 Y20
G1 F1500 X144.511 Y11.134 E112.71226
M204 S625
M205 X30 Y30
G0 F7714.3 X143.832 Y11.134
M204 S500
M205 X20 Y20
G1 F1500 X174.565 Y41.867 E113.59523
M204 S625
M205 X30 Y30
G0 F7714.3 X174.565 Y42.545
M204 S500
M205 X20 Y20
G1 F1500 X143.153 Y11.134 E114.49769
M204 S625
M205 X30 Y30
G0 F7714.3 X142.475 Y11.134
M204 S500
M205 X20 Y20
G1 F1500 X174.565 Y43.224 E115.41964
M204 S625
M205 X30 Y30
G0 F7714.3 X174.565 Y43.903
M204 S500
M205 X20 Y20
G1 F1500 X141.796 Y11.134 E116.36111
M204 S625
M205 X30 Y30
G0 F7714.3 X141.117 Y11.134
M204 S500
M205 X20 Y20
G1 F1500 X174.565 Y44.582 E117.32208
M204 S625
M205 X30 Y30
G0 F7714.3 X174.565 Y45.261
M204 S500
M205 X20 Y20
G1 F1500 X140.438 Y11.134 E118.30256
M204 S625
M205 X30 Y30
G0 F7714.3 X139.759 Y11.134
M204 S500
M205 X20 Y20
G1 F1500 X174.565 Y45.94 E119.30255
M204 S625
M205 X30 Y30
G0 F7714.3 X174.565 Y46.618
M204 S500
M205 X20 Y20
G1 F1500 X139.08 Y11.134 E120.32203
M204 S625
M205 X30 Y30
G0 F7714.3 X138.402 Y11.134
M204 S500
M205 X20 Y20
G1 F1500 X174.565 Y47.297 E121.361
M204 S625
M205 X30 Y30
G0 F7714.3 X174.565 Y47.976
M204 S500
M205 X20 Y20
G1 F1500 X137.723 Y11.134 E122.41948
M204 S625
M205 X30 Y30
G0 F7714.3 X137.044 Y11.134
M204 S500
M205 X20 Y20
G1 F1500 X174.565 Y48.655 E123.49747
M204 S625
M205 X30 Y30
G0 F7714.3 X174.565 Y49.334
M204 S500
M205 X20 Y20
G1 F1500 X136.365 Y11.134 E124.59497
M204 S625
M205 X30 Y30
G0 F7714.3 X135.686 Y11.134
M204 S500
M205 X20 Y20
G1 F1500 X174.565 Y50.012 E125.71196
M204 S625
M205 X30 Y30
G0 F7714.3 X174.565 Y50.691
M204 S500
M205 X20 Y20
G1 F1500 X135.008 Y11.134 E126.84845
M204 S625
M205 X30 Y30
G0 F7714.3 X134.329 Y11.134
M204 S500
M205 X20 Y20
G1 F1500 X174.565 Y51.37 E128.00444
M204 S625
M205 X30 Y30
G0 F7714.3 X174.565 Y52.049
M204 S500
M205 X20 Y20
G1 F1500 X133.65 Y11.134 E129.17994
M204 S625
M205 X30 Y30
G0 F7714.3 X132.971 Y11.134
M204 S500
M205 X20 Y20
G1 F1500 X174.565 Y52.728 E130.37495
M204 S625
M205 X30 Y30
G0 F7714.3 X174.565 Y53.407
M204 S500
M205 X20 Y20
G1 F1500 X132.292 Y11.134 E131.58947
M204 S625
M205 X30 Y30
G0 F7714.3 X131.613 Y11.134
M204 S500
M205 X20 Y20
G1 F1500 X174.565 Y54.085 E132.82348
M204 S625
M205 X30 Y30
G0 F7714.3 X174.565 Y54.764
M204 S500
M205 X20 Y20
G1 F1500 X130.935 Y11.134 E134.07698
M204 S625
M205 X30 Y30
G0 F7714.3 X130.256 Y11.134
M204 S500
M205 X20 Y20
G1 F1500 X174.565 Y55.443 E135.34999
M204 S625
M205 X30 Y30
G0 F7714.3 X174.565 Y56.122
M204 S500
M205 X20 Y20
G1 F1500 X129.577 Y11.134 E136.64251
M204 S625
M205 X30 Y30
G0 F7714.3 X128.898 Y11.134
M204 S500
M205 X20 Y20
G1 F1500 X174.565 Y56.801 E137.95454
M204 S625
M205 X30 Y30
G0 F7714.3 X174.565 Y57.48
M204 S500
M205 X20 Y20
G1 F1500 X128.219 Y11.134 E139.28607
M204 S625
M205 X30 Y30
G0 F7714.3 X127.54 Y11.134
M204 S500
M205 X20 Y20
G1 F1500 X174.565 Y58.158 E140.6371
M204 S625
M205 X30 Y30
G0 F7714.3 X174.565 Y58.837
M204 S500
M205 X20 Y20
G1 F1500 X126.862 Y11.134 E142.00763
M204 S625
M205 X30 Y30
G0 F7714.3 X126.183 Y11.134
M204 S500
M205 X20 Y20
G1 F1500 X174.565 Y59.516 E143.39766
M204 S625
M205 X30 Y30
G0 F7714.3 X174.565 Y60.195
M204 S500
M205 X20 Y20
G1 F1500 X125.504 Y11.134 E144.80719
M204 S625
M205 X30 Y30
G0 F7714.3 X124.825 Y11.134
M204 S500
M205 X20 Y20
G1 F1500 X174.565 Y60.874 E146.23624
M204 S625
M205 X30 Y30
G0 F7714.3 X174.565 Y61.552
M204 S500
M205 X20 Y20
