;START_OF_HEADER
;HEADER_VERSION:0.1
;FLAVOR:Griffin
;GENERATOR.NAME:Cura_SteamEngine
;GENERATOR.VERSION:4.12.1
;GENERATOR.BUILD_DATE:2021-11-18
;TARGET_MACHINE.NAME:Ultimaker 3
;EXTRUDER_TRAIN.1.INITIAL_TEMPERATURE:245
;EXTRUDER_TRAIN.1.MATERIAL.VOLUME_USED:36536
;EXTRUDER_TRAIN.1.MATERIAL.GUID:60636bb4-518f-42e7-8237-fe77b194ebe0
;EXTRUDER_TRAIN.1.NOZZLE.DIAMETER:0.4
;EXTRUDER_TRAIN.1.NOZZLE.NAME:AA 0.4
;BUILD_PLATE.TYPE:glass
;BUILD_PLATE.INITIAL_TEMPERATURE:80
;PRINT.TIME:11364
;PRINT.GROUPS:1
;PRINT.SIZE.MIN.X:6.721
;PRINT.SIZE.MIN.Y:6
;PRINT.SIZE.MIN.Z:0.27
;PRINT.SIZE.MAX.X:204
;PRINT.SIZE.MAX.Y:198.8
;PRINT.SIZE.MAX.Z:3.07
;END_OF_HEADER
;Generated with Cura_SteamEngine 4.12.1
T1
M82 ;absolute extrusion mode

G92 E0
M109 S245
G0 F9000 X204 Y6 Z2
G280
G1 F1500 E-5
;LAYER_COUNT:15
;LAYER:0
M107
M204 S625
M205 X30 Y30
;MESH:lightbox_lid.stl
G0 F7714.3 X14.603 Y192.834 Z0.27
M204 S500
M205 X20 Y20
;TYPE:WALL-INNER
G1 F1500 E0
G1 X15.266 Y192.99 E0.01176
G1 X15.901 Y192.978 E0.02273
G1 X16.485 Y192.827 E0.03314
G1 X17.075 Y192.517 E0.04465
G1 X17.538 Y192.117 E0.05522
G1 X17.928 Y191.585 E0.06661
G1 X18.193 Y190.932 E0.07878
G1 X18.277 Y190.354 E0.08887
G1 X18.232 Y189.748 E0.09936
G1 X18.031 Y189.146 E0.11032
G1 X17.656 Y188.575 E0.12211
G1 X17.167 Y188.146 E0.13335
G1 X16.58 Y187.858 E0.14464
G1 X15.943 Y187.726 E0.15587
G1 X15.257 Y187.765 E0.16774
G1 X14.675 Y187.944 E0.17825
G1 X14.201 Y188.207 E0.18761
G1 X13.743 Y188.601 E0.19804
G1 X13.397 Y189.057 E0.20793
G1 X13.125 Y189.652 E0.21923
G1 X13.003 Y190.257 E0.22988
G1 X13.044 Y190.963 E0.2421
G1 X13.242 Y191.571 E0.25314
G1 X13.568 Y192.085 E0.26365
G1 X13.985 Y192.488 E0.27366
G1 X14.603 Y192.834 E0.28589
M204 S625
M205 X30 Y30
G0 F7714.3 X14.765 Y192.416
M204 S500
M205 X20 Y20
;TYPE:WALL-OUTER
G1 F1500 X15.313 Y192.545 E0.29733
G1 X15.84 Y192.535 E0.30804
G1 X16.324 Y192.41 E0.31819
G1 X16.823 Y192.148 E0.32964
G1 X17.21 Y191.814 E0.34003
G1 X17.537 Y191.367 E0.35128
G1 X17.761 Y190.815 E0.36338
G1 X17.831 Y190.338 E0.37318
G1 X17.793 Y189.836 E0.3834
G1 X17.628 Y189.341 E0.394
G1 X17.318 Y188.869 E0.40547
G1 X16.918 Y188.519 E0.41627
G1 X16.435 Y188.281 E0.42721
G1 X15.91 Y188.173 E0.4381
G1 X15.336 Y188.205 E0.44978
G1 X14.85 Y188.355 E0.46011
G1 X14.456 Y188.573 E0.46926
G1 X14.068 Y188.907 E0.47966
G1 X13.78 Y189.286 E0.48933
G1 X13.55 Y189.79 E0.50059
G1 X13.45 Y190.288 E0.5109
G1 X13.484 Y190.88 E0.52295
G1 X13.647 Y191.38 E0.53364
G1 X13.915 Y191.803 E0.54381
G1 X14.252 Y192.129 E0.55333
G1 X14.765 Y192.416 E0.56528
M204 S625
M205 X30 Y30
G0 F7714.3 X14.96 Y192.461
G0 X14.838 Y192.975
G1 F1500 E-4.43472
G0 F7714.3 X14.954 Y27.161
M204 S500
M205 X20 Y20
;TYPE:WALL-INNER
G1 F1500 E0.56528
G1 X15.626 Y27.278 E0.57705
G1 X16.252 Y27.232 E0.58789
G1 X16.852 Y27.032 E0.59881
G1 X17.378 Y26.695 E0.6096
G1 X17.802 Y26.24 E0.62034
G1 X18.104 Y25.686 E0.63124
G1 X18.256 Y25.097 E0.64174
G1 X18.273 Y24.566 E0.65092
G1 X18.172 Y23.998 E0.66088
G1 X17.921 Y23.404 E0.67201
G1 X17.564 Y22.91 E0.68254
G1 X17.072 Y22.48 E0.69382
G1 X16.526 Y22.19 E0.7045
G1 X15.977 Y22.035 E0.71435
G1 X15.374 Y22.002 E0.72478
G1 X14.833 Y22.091 E0.73424
G1 X14.247 Y22.338 E0.74522
G1 X13.822 Y22.649 E0.75432
G1 X13.409 Y23.136 E0.76535
G1 X13.164 Y23.611 E0.77457
G1 X13.006 Y24.302 E0.78681
G1 X13.028 Y24.932 E0.7977
G1 X13.173 Y25.486 E0.80759
G1 X13.483 Y26.075 E0.81908
G1 X13.883 Y26.538 E0.82965
G1 X14.406 Y26.922 E0.84085
G1 X14.954 Y27.161 E0.85118
M204 S625
M205 X30 Y30
G0 F7714.3 X15.083 Y26.733
M204 S500
M205 X20 Y20
;TYPE:WALL-OUTER
G1 F1500 X15.648 Y26.831 E0.86283
G1 X16.164 Y26.793 E0.87334
G1 X16.659 Y26.628 E0.88394
G1 X17.091 Y26.351 E0.89436
G1 X17.439 Y25.978 E0.90473
G1 X17.688 Y25.522 E0.91528
G1 X17.814 Y25.034 E0.92552
G1 X17.828 Y24.598 E0.93438
G1 X17.744 Y24.125 E0.94414
G1 X17.532 Y23.623 E0.95521
G1 X17.234 Y23.211 E0.96554
G1 X16.818 Y22.848 E0.97676
G1 X16.36 Y22.604 E0.9873
G1 X15.904 Y22.476 E0.99692
G1 X15.398 Y22.448 E1.00722
G1 X14.957 Y22.521 E1.0163
G1 X14.467 Y22.727 E1.0271
G1 X14.127 Y22.976 E1.03566
G1 X13.78 Y23.385 E1.04655
G1 X13.584 Y23.765 E1.05524
G1 X13.452 Y24.344 E1.06731
G1 X13.47 Y24.867 E1.07794
G1 X13.59 Y25.324 E1.08754
G1 X13.852 Y25.823 E1.09899
G1 X14.186 Y26.21 E1.10937
G1 X14.629 Y26.535 E1.12053
G1 X15.083 Y26.733 E1.13059
M204 S625
M205 X30 Y30
G0 F7714.3 X15.28 Y26.767
G0 X15.189 Y27.287
G1 F1500 E-3.86941
G0 F7714.3 X180.42 Y27.142
M204 S500
M205 X20 Y20
;TYPE:WALL-INNER
G1 F1500 E1.13059
G1 X181.057 Y27.274 E1.14183
G1 X181.743 Y27.235 E1.15369
G1 X182.33 Y27.054 E1.1643
G1 X182.903 Y26.719 E1.17576
G1 X183.387 Y26.251 E1.18739
G1 X183.714 Y25.74 E1.19786
G1 X183.937 Y25.12 E1.20924
G1 X184.003 Y24.518 E1.2197
G1 X183.917 Y23.864 E1.23109
G1 X183.694 Y23.304 E1.2415
G1 X183.358 Y22.828 E1.25156
G1 X182.836 Y22.389 E1.26334
G1 X182.234 Y22.112 E1.27478
G1 X181.691 Y22.007 E1.28433
G1 X181.068 Y22.028 E1.2951
G1 X180.514 Y22.173 E1.30498
G1 X179.925 Y22.483 E1.31648
G1 X179.462 Y22.883 E1.32704
G1 X179.082 Y23.4 E1.33812
G1 X178.839 Y23.954 E1.34857
G1 X178.722 Y24.626 E1.36035
G1 X178.768 Y25.252 E1.37119
G1 X178.969 Y25.854 E1.38215
G1 X179.344 Y26.425 E1.39394
G1 X179.832 Y26.852 E1.40514
G1 X180.42 Y27.142 E1.41646
M204 S625
M205 X30 Y30
G0 F7714.3 X180.565 Y26.719
M204 S500
M205 X20 Y20
;TYPE:WALL-OUTER
G1 F1500 X181.09 Y26.827 E1.42735
G1 X181.664 Y26.795 E1.43903
G1 X182.15 Y26.645 E1.44936
G1 X182.633 Y26.363 E1.46072
G1 X183.041 Y25.968 E1.47226
G1 X183.313 Y25.543 E1.48251
G1 X183.501 Y25.019 E1.49382
G1 X183.556 Y24.523 E1.50396
G1 X183.484 Y23.977 E1.51515
G1 X183.301 Y23.517 E1.52521
G1 X183.028 Y23.131 E1.53481
G1 X182.596 Y22.767 E1.54629
G1 X182.097 Y22.538 E1.55744
G1 X181.656 Y22.452 E1.56657
G1 X181.133 Y22.47 E1.5772
G1 X180.676 Y22.59 E1.5868
G1 X180.177 Y22.852 E1.59825
G1 X179.79 Y23.186 E1.60863
G1 X179.469 Y23.623 E1.61965
G1 X179.267 Y24.083 E1.62986
G1 X179.169 Y24.648 E1.64151
G1 X179.207 Y25.164 E1.65202
G1 X179.372 Y25.659 E1.66262
G1 X179.682 Y26.131 E1.67409
G1 X180.081 Y26.48 E1.68486
G1 X180.565 Y26.719 E1.69582
M204 S625
M205 X30 Y30
G0 F7714.3 X180.761 Y26.759
G0 X180.654 Y27.277
G1 F1500 E-3.30418
G0 F7714.3 X181.023 Y192.965
M204 S500
M205 X20 Y20
;TYPE:WALL-INNER
G1 F1500 E1.69582
G1 X181.626 Y192.998 E1.70625
G1 X182.167 Y192.909 E1.71572
G1 X182.753 Y192.662 E1.7267
G1 X183.178 Y192.351 E1.7358
G1 X183.591 Y191.864 E1.74682
G1 X183.836 Y191.39 E1.75604
G1 X183.99 Y190.733 E1.76769
G1 X183.978 Y190.099 E1.77864
G1 X183.827 Y189.515 E1.78905
G1 X183.517 Y188.925 E1.80056
G1 X183.117 Y188.462 E1.81113
G1 X182.589 Y188.076 E1.82242
G1 X182.045 Y187.839 E1.83267
G1 X181.379 Y187.723 E1.84434
G1 X180.857 Y187.75 E1.85337
G1 X180.284 Y187.908 E1.86363
G1 X179.748 Y188.206 E1.87422
G1 X179.298 Y188.632 E1.88492
G1 X178.961 Y189.162 E1.89577
G1 X178.769 Y189.749 E1.90643
G1 X178.723 Y190.4 E1.9177
G1 X178.827 Y191.001 E1.92824
G1 X179.079 Y191.596 E1.93939
G1 X179.436 Y192.09 E1.94992
G1 X179.928 Y192.52 E1.9612
G1 X180.474 Y192.81 E1.97188
G1 X181.023 Y192.965 E1.98173
M204 S625
M205 X30 Y30
G0 F7714.3 X181.096 Y192.524
M204 S500
M205 X20 Y20
;TYPE:WALL-OUTER
G1 F1500 X181.602 Y192.552 E1.99202
G1 X182.043 Y192.479 E2.0011
G1 X182.533 Y192.273 E2.0119
G1 X182.873 Y192.024 E2.02046
G1 X183.22 Y191.615 E2.03136
G1 X183.416 Y191.235 E2.04005
G1 X183.545 Y190.686 E2.0515
G1 X183.535 Y190.16 E2.06219
G1 X183.41 Y189.676 E2.07235
G1 X183.148 Y189.177 E2.0838
G1 X182.814 Y188.79 E2.09418
G1 X182.367 Y188.463 E2.10543
G1 X181.917 Y188.267 E2.11541
G1 X181.352 Y188.169 E2.12705
G1 X180.928 Y188.191 E2.13568
G1 X180.453 Y188.322 E2.14569
G1 X180.013 Y188.567 E2.15592
G1 X179.643 Y188.917 E2.16627
G1 X179.366 Y189.353 E2.17676
G1 X179.208 Y189.835 E2.18707
G1 X179.17 Y190.377 E2.1981
G1 X179.256 Y190.875 E2.20837
G1 X179.468 Y191.377 E2.21944
G1 X179.766 Y191.789 E2.22977
G1 X180.182 Y192.152 E2.24099
G1 X180.64 Y192.396 E2.25153
G1 X181.096 Y192.524 E2.26115
M204 S625
M205 X30 Y30
G0 F7714.3 X181.296 Y192.535
G0 X181.266 Y193.063
G1 F1500 E-2.73885
G0 F7714.3 X15.149 Y193.382
M204 S500
M205 X20 Y20
;TYPE:WALL-INNER
G1 F1500 E2.26115
G1 X14.519 Y193.517 E2.27228
G1 X8.746 Y194.763 E2.37426
G1 X8.58 Y194.748 E2.37714
G1 X8.339 Y194.392 E2.38456
G1 X8.094 Y193.841 E2.39498
G1 X7.906 Y193.301 E2.40485
G1 X7.827 Y192.902 E2.41187
G1 X7.972 Y192.728 E2.41579
G1 X12.319 Y189.832 E2.50598
G1 X12.727 Y189.56 E2.51445
G1 X12.593 Y190.228 E2.52153
G1 X12.64 Y191.039 E2.53556
G1 X12.87 Y191.746 E2.5484
G1 X13.25 Y192.345 E2.56065
G1 X13.74 Y192.818 E2.57241
G1 X14.454 Y193.218 E2.58654
G1 X15.149 Y193.382 E2.59171
M204 S625
M205 X30 Y30
G1 F1500 E-2.40829
G0 F7714.3 X13.718 Y193.273
M204 S500
M205 X20 Y20
G1 F1500 E2.59171
G1 X8.794 Y194.335 E2.6787
G1 X8.697 Y194.193 E2.68167
G1 X8.471 Y193.684 E2.69128
G1 X8.301 Y193.194 E2.70024
G1 X8.266 Y193.022 E2.70327
G1 X12.195 Y190.405 E2.78479
G1 X12.236 Y191.115 E2.79707
G1 X12.498 Y191.921 E2.81171
G1 X12.932 Y192.605 E2.82569
G1 X13.495 Y193.148 E2.8392
G1 X13.718 Y193.273 E2.84362
M204 S625
M205 X30 Y30
G1 F1500 E-2.15638
G0 F7714.3 X12.808 Y193.052
M204 S500
M205 X20 Y20
G1 F1500 E2.84362
G1 X9.001 Y193.873 E2.91087
G1 X8.735 Y193.2 E2.92336
G1 X11.829 Y191.139 E2.98756
G1 X11.832 Y191.191 E2.98846
G1 X12.126 Y192.096 E3.00489
G1 X12.614 Y192.865 E3.02062
G1 X12.808 Y193.052 E3.02527
M204 S625
M205 X30 Y30
G0 F7714.3 X12.084 Y192.791
M204 S500
M205 X20 Y20
G1 F1500 X9.253 Y193.401 E3.07528
G1 X9.235 Y193.357 E3.0761
G1 X11.596 Y191.785 E3.12508
G1 X11.754 Y192.271 E3.1339
G1 X12.084 Y192.791 E3.14454
M204 S625
M205 X30 Y30
G1 F1500 E-1.85546
G0 F7714.3 X11.583 Y23.205
M204 S500
M205 X20 Y20
G1 F1500 E3.14454
G1 X9.237 Y21.643 E3.19321
G1 X9.254 Y21.599 E3.19402
G1 X12.062 Y22.204 E3.24362
G1 X12.045 Y22.224 E3.24408
G1 X11.62 Y23.045 E3.26004
G1 X11.583 Y23.205 E3.26288
M204 S625
M205 X30 Y30
G0 F7714.3 X11.848 Y23.872
M204 S500
M205 X20 Y20
G1 F1500 X8.735 Y21.799 E3.32746
G1 X9.003 Y21.127 E3.33995
G1 X12.811 Y21.948 E3.40722
G1 X12.386 Y22.452 E3.41861
G1 X12.006 Y23.187 E3.43289
G1 X11.848 Y23.872 E3.44503
M204 S625
M205 X30 Y30
G1 F1500 E-1.55497
G0 F7714.3 X12.2 Y24.597
M204 S500
M205 X20 Y20
G1 F1500 E3.44503
G1 X8.269 Y21.979 E3.52659
G1 X8.303 Y21.799 E3.52975
G1 X8.47 Y21.319 E3.53853
G1 X8.706 Y20.789 E3.54855
G1 X8.779 Y20.661 E3.55109
G1 X13.263 Y21.629 E3.63031
G1 X13.706 Y21.724 E3.63813
G1 X13.262 Y22.047 E3.64366
G1 X12.727 Y22.68 E3.65797
G1 X12.392 Y23.329 E3.67058
G1 X12.186 Y24.224 E3.68644
G1 X12.2 Y24.597 E3.69289
M204 S625
M205 X30 Y30
G1 F1500 E-1.30711
G0 F7714.3 X12.742 Y25.449
M204 S500
M205 X20 Y20
G1 F1500 E3.69289
G1 X7.971 Y22.271 E3.79188
G1 X7.831 Y22.1 E3.79569
G1 X7.907 Y21.696 E3.80279
G1 X8.093 Y21.162 E3.81256
G1 X8.342 Y20.603 E3.82313
G1 X8.502 Y20.322 E3.82871
G1 X8.657 Y20.233 E3.8318
G1 X8.735 Y20.234 E3.83314
G1 X14.754 Y21.532 E3.93947
G1 X15.168 Y21.622 E3.94678
G1 X14.719 Y21.696 E3.94872
G1 X14.045 Y21.981 E3.96136
G1 X13.542 Y22.348 E3.97211
G1 X13.068 Y22.908 E3.98478
G1 X12.778 Y23.47 E3.9957
G1 X12.596 Y24.263 E4.00975
G1 X12.622 Y24.991 E4.02233
G1 X12.742 Y25.449 E4.0305
M204 S625
M205 X30 Y30
G1 F1500 E-0.9695
G0 F7714.3 X185.414 Y23.21
M204 S500
M205 X20 Y20
G1 F1500 E4.0305
G1 X185.138 Y22.52 E4.04333
G1 X184.919 Y22.21 E4.04989
G1 X187.755 Y21.598 E4.09999
G1 X187.771 Y21.638 E4.10073
G1 X185.414 Y23.21 E4.14966
M204 S625
M205 X30 Y30
G0 F7714.3 X185.153 Y23.873
M204 S500
M205 X20 Y20
G1 F1500 X185.111 Y23.552 E4.15525
G1 X184.777 Y22.716 E4.17079
G1 X184.267 Y21.994 E4.18606
G1 X184.209 Y21.945 E4.18737
G1 X188.002 Y21.127 E4.25437
G1 X188.031 Y21.183 E4.25546
G1 X188.24 Y21.713 E4.2653
G1 X188.266 Y21.798 E4.26683
G1 X185.64 Y23.548 E4.32132
G1 X185.153 Y23.873 E4.33144
M204 S625
M205 X30 Y30
G0 F7714.3 X184.816 Y24.588
M204 S500
M205 X20 Y20
G1 F1500 X184.825 Y24.51 E4.33279
G1 X184.713 Y23.656 E4.34766
G1 X184.416 Y22.912 E4.3615
G1 X183.964 Y22.272 E4.37503
G1 X183.627 Y21.988 E4.38264
G1 X183.311 Y21.721 E4.38978
G1 X183.715 Y21.634 E4.39371
G1 X188.226 Y20.661 E4.4734
G1 X188.407 Y21.024 E4.4804
G1 X188.622 Y21.569 E4.49052
G1 X188.744 Y21.97 E4.49776
G1 X184.816 Y24.588 E4.57927
M204 S625
M205 X30 Y30
G1 F1500 E-0.42073
G0 F7714.3 X184.25 Y25.456
M204 S500
M205 X20 Y20
G1 F1500 E4.57927
G1 X184.337 Y25.213 E4.58373
G1 X184.414 Y24.514 E4.59587
G1 X184.315 Y23.76 E4.60901
G1 X184.055 Y23.108 E4.62113
G1 X183.661 Y22.55 E4.63292
G1 X183.057 Y22.041 E4.64656
G1 X182.36 Y21.721 E4.65981
G1 X181.84 Y21.621 E4.66895
G1 X182.316 Y21.519 E4.67092
G1 X188.228 Y20.243 E4.77536
G1 X188.457 Y20.28 E4.77937
G1 X188.543 Y20.383 E4.78168
G1 X188.78 Y20.856 E4.79082
G1 X189.006 Y21.43 E4.80147
G1 X189.16 Y21.937 E4.81062
G1 X189.156 Y22.128 E4.81392
G1 X189.023 Y22.275 E4.81734
G1 X184.25 Y25.456 E4.91639
M204 S625
M205 X30 Y30
G1 F1500 E-0.08361
G0 F7714.3 X184.942 Y192.796
M204 S500
M205 X20 Y20
G1 F1500 E4.91639
G1 X184.955 Y192.78 E4.91675
G1 X185.38 Y191.958 E4.93273
G1 X185.418 Y191.795 E4.93562
G1 X187.764 Y193.358 E4.9843
G1 X187.747 Y193.4 E4.98508
G1 X184.942 Y192.796 E5.03463
M204 S625
M205 X30 Y30
G0 F7714.3 X184.19 Y193.051
M204 S500
M205 X20 Y20
G1 F1500 X184.614 Y192.551 E5.04595
G1 X184.994 Y191.816 E5.06023
G1 X185.155 Y191.129 E5.07242
G1 X188.265 Y193.201 E5.13695
G1 X187.998 Y193.872 E5.14942
G1 X184.19 Y193.051 E5.21669
M204 S625
M205 X30 Y30
G1 F1500 E0.21669
G0 F7714.3 X183.295 Y193.276
M204 S500
M205 X20 Y20
G1 F1500 E5.21669
G1 X183.738 Y192.953 E5.22616
G1 X184.273 Y192.322 E5.24044
G1 X184.608 Y191.674 E5.25304
G1 X184.808 Y190.819 E5.2682
G1 X184.8 Y190.402 E5.2754
G1 X188.731 Y193.021 E5.35697
G1 X188.697 Y193.2 E5.36012
G1 X188.53 Y193.681 E5.36891
G1 X188.297 Y194.205 E5.37881
G1 X188.217 Y194.337 E5.38148
G1 X183.738 Y193.371 E5.4606
G1 X183.295 Y193.276 E5.46448
M204 S625
M205 X30 Y30
G1 F1500 E0.46448
G0 F7714.3 X181.833 Y193.378
M204 S500
M205 X20 Y20
G1 F1500 E5.46448
G1 X182.281 Y193.304 E5.47232
G1 X182.955 Y193.019 E5.48495
G1 X183.458 Y192.652 E5.4957
G1 X183.932 Y192.093 E5.50836
G1 X184.222 Y191.532 E5.51927
G1 X184.399 Y190.776 E5.53267
G1 X184.385 Y190.043 E5.54533
G1 X184.257 Y189.55 E5.55413
G1 X189.026 Y192.727 E5.65308
G1 X189.169 Y192.899 E5.65694
G1 X189.093 Y193.303 E5.66404
G1 X188.907 Y193.838 E5.67382
G1 X188.66 Y194.394 E5.68433
G1 X188.458 Y194.723 E5.69099
G1 X188.272 Y194.766 E5.69429
G1 X182.246 Y193.467 E5.80074
G1 X181.833 Y193.378 E5.80211
M204 S625
M205 X30 Y30
G1 F1500 E0.80211
G0 F7714.3 X164.484 Y191.199
M204 S500
M205 X20 Y20
G1 F1500 E5.80211
G1 X164.482 Y196.483 E5.89335
G1 X32.517 Y196.484 E8.17214
G1 X32.516 Y191.131 E8.26457
G1 X32.12 Y189.929 E8.28643
G1 X30.843 Y189.028 E8.31342
G1 X29.766 Y188.977 E8.33203
G1 X19.815 Y191.123 E8.50782
G1 X19.917 Y190.41 E8.52026
G1 X19.844 Y189.424 E8.53733
G1 X19.511 Y188.426 E8.5555
G1 X18.899 Y187.494 E8.57475
G1 X18.525 Y187.168 E8.58332
G1 X31.701 Y178.39 E8.85671
G1 X32.368 Y177.544 E8.87531
G1 X32.516 Y176.704 E8.89004
G1 X32.516 Y38.131 E11.28293
G1 X32.181 Y37.103 E11.3016
G1 X31.559 Y36.516 E11.31637
G1 X18.54 Y27.841 E11.58652
G1 X19.138 Y27.2 E11.60166
G1 X19.633 Y26.29 E11.61955
G1 X19.88 Y25.329 E11.63668
G1 X19.909 Y24.449 E11.65189
G1 X19.808 Y23.876 E11.66193
G1 X29.839 Y26.04 E11.83914
G1 X31.087 Y25.901 E11.86082
G1 X32.24 Y24.849 E11.88777
G1 X32.516 Y23.801 E11.90649
G1 X32.517 Y18.517 E11.99773
G1 X164.483 Y18.516 E14.27653
G1 X164.484 Y23.869 E14.36897
G1 X164.88 Y25.071 E14.39082
G1 X166.157 Y25.972 E14.41781
G1 X167.234 Y26.023 E14.43643
G1 X177.197 Y23.875 E14.61242
G1 X177.078 Y24.546 E14.62419
G1 X177.156 Y25.576 E14.64203
G1 X177.489 Y26.574 E14.66019
G1 X178.103 Y27.508 E14.6795
G1 X178.475 Y27.832 E14.68801
G1 X165.299 Y36.61 E14.96141
G1 X164.632 Y37.456 E14.98001
G1 X164.484 Y38.296 E14.99474
G1 X164.484 Y176.869 E17.38763
G1 X164.819 Y177.897 E17.4063
G1 X165.441 Y178.484 E17.42107
G1 X178.471 Y187.167 E17.69145
G1 X178.03 Y187.584 E17.70193
G1 X177.473 Y188.46 E17.71986
G1 X177.157 Y189.433 E17.73753
G1 X177.083 Y190.483 E17.7557
